X:1
T:The World for the Lord
T:The World for the Lord
T:R. Frank Lehman
T:Llewellyn A. Morrison, 1902
T:Public Domain Courtesy of the Cyber Hymnal™
T:Public Domain Courtesy of the Cyber Hymnal™
C:R. Frank Lehman
Z:Public Domain
Z:Courtesy of the Cyber Hymnal™
%%score ( 1 2 ) ( 3 4 )
L:1/8
Q:1/4=100
M:12/8
K:Ab
V:1 treble 
V:2 treble 
V:3 bass 
V:4 bass 
V:1
 [CE] | [CE]3 ([=B,=D][CE])[_DF] [CE]3 [EA]2 [EG] | [DF]3 [FA]2 [DF] [DF]3 [CE]2 [CE] | %3
w: 1.~Be-|lov- ed * of Je- sus, go|forth and God speed thee! Be|
w: 2.~To|act- ion! * de- lay not! thy|mis- sion, sal- va- tion; The|
w: 3.~O,|haste thee, * nor tar- ry! stay|not for the mor- row! Je-|
w: 4.~O,|faint not, * nor fal- ter, tho’|bur- dens op- press thee; Thy|
 [CE]3 ([=B,=D][CE])[_DF] [CE]3 [EA]2 [E=B] | [Ec]3 [EB]2 [=DF] [EB]4 z [_DE] | %5
w: swift in * His name till the|end of the days! Let|
w: grace of * thy go- ing each|gate- way un- bars; Win|
w: ho- vah, * our God, thy de-|fense and thy might; Bear|
w: buck- ler * and shield the im-|ma- cu- late word; His|
 [CE]3 ([=B,=D][CE])[_DF] [CE]3 [EA]2 [EG] | [DF]3 [FA]2 [DF] [DF]3 [CE]2 [CE] | %7
w: Christ, the * great lead- er, om-|ni- po- tent lead thee— His|
w: souls for * the day of the|King’s cor- o- na- tion; The|
w: light in- * to dark- ness, and|joy un- to sor- row; Be|
w: power and * the spir- it of|con- quest pos- sess thee, Thy|
 [CA]3 ([CA][DB])[Ec] [Fd]3 [Fc]2 [FB] | [EA]3 (GA)[EB] [EA]4 z ||"^Refrain" E | %10
w: king- dom * thy boast, and His|glo- ry * thy praise!||
w: ones who * turn ma- ny shall|shine as * the stars.||
w: firm and * be fear- less, for|God and * the right.|A-|
w: war cry * and watch- word— The|world for * the Lord.||
 [Ec]3 ([DB][Ec])[DB] [CA]3 [CE]2 [EA] | [EA]3 [EG]2 [EB] [EB]3 [EA]2 [Cc] | %12
w: ||
w: ||
w: rise and * be do- ing! A-|bove and a- round thee, The|
w: ||
 [Cc]3 (C=D)=E (F2 G) A2 [CA] | [=DB]3 [Dc]2 [DB] [_DB]4 z E | %14
w: ||
w: ||
w: ranks of * the ran- * somed in|pan- o- ply teem; Be|
w: ||
 [Ec]3 ([DB][Ec])[DB] [CA]3 [CE]2 [EA] | [EA]3 [EG]2 [Ed] [Ed]3 [Ec]2 [Ec] | %16
w: ||
w: ||
w: val- iant * in ser- vice, for|Je- sus hath crowned thee, A|
w: ||
 [Ff]3 [Fc]2 [Fe] [Fd]3 [Fc]2 [FB] | [EA]3 (GA)[EB] [EA]3- [EA]2 |] %18
w: ||
w: ||
w: ser- vant of ma- ny, to|save and * re- deem. *|
w: ||
V:2
 x | x12 | x12 | x12 | x12 | x12 | x12 | x12 | x3 E2 x6 || E | x12 | x12 | x3 C=D=E F2 G A2 x | %13
 x11 E | x12 | x12 | x12 | x3 E2 x6 |] %18
V:3
 [A,,A,] | [A,,A,]3 [A,,A,]2 [A,,A,] [A,,A,]3 [C,A,]2 [C,A,] | %2
 [D,A,]3 [D,A,]2 [D,A,] [A,,A,]3 [A,,A,]2 [A,,A,] | %3
 [A,,A,]3 [A,,A,]2 [A,,A,] [A,,A,]3 [C,A,]2 [E,G,] | A,3 [G,B,]2 [F,A,] [E,G,]4 z [E,G,] | %5
 [A,,A,]3 [A,,A,]2 [A,,A,] [A,,A,]3 [C,A,]2 [C,A,] | %6
 [D,A,]3 [D,A,]2 [D,A,] [A,,A,]3 [A,,A,]2 [A,,A,] | [A,,A,]3 A,2 A, [D,A,]3 [B,,D]2 [B,,D] | %8
 [E,C]3 (B,C)[E,D] [A,,C]4 z || E, | [A,,A,]3 [E,G,]2 [E,G,] [A,,A,]3 [A,,A,]2 [C,A,] | %11
 [E,C]3 [E,B,]2 [E,D] [A,D]3 [A,C]2 [C,C] | [C,C]3 (C,=D,)E, (F,2 G,) A,2 [F,A,] | %13
 [B,,A,]3 [B,,A,]2 [B,,A,] [E,G,]4 z E, | [A,,A,]3 [E,G,]2 [E,G,] [A,,A,]3 [A,,A,]2 [C,A,] | %15
 [E,C]3 [E,B,]2 [G,B,] A,3 [A,C]2 [_G,B,] | [F,=A,]3 [F,A,]2 [F,A,] [B,,B,]3 [C,A,]2 [D,B,] | %17
 [E,C]3 (B,C)[E,D] [A,,C]3- [A,,C]2 |] %18
V:4
 x | x12 | x12 | x12 | A,3 x9 | x12 | x12 | x3 A,2 A, x6 | x3 E,2 x6 || E, | x12 | x12 | %12
 x3 C,=D,E, F,2 G, A,2 x | x11 E, | x12 | x6 A,3 x3 | x12 | x3 E,2 x6 |] %18

